X:1
T:Fig for a Kiss, A
R:Slip Jig
M:9/8
L:1/8
K:G
%%printtempo 0
Q:160
|:"Em" G2B E2B BAG|"D"F2A D2F AGF|"Em" G2B E2B BAG| B/c/dB "D"AGF "Em"E2E::
"Em" g2e g2e edB|"D"f2d d^cd fed|"Em" g2e g2e edB |1 "G"dBG GBd "C"e2 f :|2 "G"BdB "D"AGF "Em"E3|]
